icons/edit.svg

<svg xmlns="http://www.w3.org/2000/svg" width="24" height="24"><path d="M23.25 2.894L21.128.77c-.943-.942-2.592-.942-3.536 0l-.707.708L2.247 16.12s-.003 0-.004.003c0 .002 0 .003-.003.004l-.248.25a.5.5 0 0 0-.133.238L.34 23.077a.5.5 0 0 0 .6.6l6.467-1.516a.5.5 0 0 0 .238-.13l.248-.25H7.9l13.2-13.2c.004 0 .01-.002.014-.01l.01-.012 1.404-1.403c.005-.006.01-.007.014-.01s.005-.01.01-.014l.696-.697a2.504 2.504 0 0 0 0-3.535zM20.763 7.5L16.53 3.25l.708-.71 4.244 4.244-.72.72zM7.546 20.718l-4.242-4.242 12.52-12.52 4.232 4.252-12.51 12.51zm-4.823-3.41l3.99 3.992L1.5 22.52l1.223-5.212zm19.82-11.586l-.355.355-4.244-4.244.354-.353c.565-.566 1.555-.567 2.122 0l2.122 2.12a1.503 1.503 0 0 1 0 2.12z"/></svg>

<?xml version="1.0" encoding="utf-8"?>
<!-- Generator: Adobe Illustrator 16.0.0, SVG Export Plug-In . SVG Version: 6.00 Build 0)  -->
<!DOCTYPE svg PUBLIC "-//W3C//DTD SVG 1.1//EN" "http://www.w3.org/Graphics/SVG/1.1/DTD/svg11.dtd">
<svg version="1.1" id="Outline_Icons" xmlns="http://www.w3.org/2000/svg" xmlns:xlink="http://www.w3.org/1999/xlink" x="0px"
	 y="0px" width="24px" height="24px" viewBox="0 0 24 24" enable-background="new 0 0 24 24" xml:space="preserve">
<path d="M23.25,2.894l-2.122-2.123c-0.943-0.943-2.592-0.943-3.536,0l-0.707,0.707h0c0,0,0,0,0,0.001L2.247,16.118
	c-0.001,0.001-0.003,0.001-0.004,0.003c-0.001,0.001-0.001,0.002-0.003,0.003l-0.248,0.249c-0.066,0.066-0.112,0.149-0.133,0.239
	l-1.517,6.465c-0.04,0.168,0.011,0.345,0.133,0.468c0.095,0.095,0.223,0.146,0.354,0.146c0.038,0,0.076-0.005,0.114-0.013
	l6.466-1.517c0.09-0.021,0.173-0.067,0.239-0.133l0.248-0.248c0.001-0.001,0.003-0.001,0.004-0.003s0.001-0.003,0.003-0.004
	L21.102,8.576c0.005-0.003,0.011-0.005,0.015-0.01s0.006-0.011,0.01-0.015l1.404-1.404c0.004-0.004,0.009-0.005,0.013-0.009
	s0.005-0.009,0.009-0.013l0.697-0.697C24.223,5.453,24.223,3.867,23.25,2.894z M20.763,7.501L16.53,3.248l0.708-0.709l4.244,4.243
	L20.763,7.501z M7.546,20.717l-4.242-4.242L15.823,3.954l4.233,4.253L7.546,20.717z M2.723,17.308l3.99,3.991L1.5,22.521
	L2.723,17.308z M22.542,5.721l-0.354,0.354l-4.244-4.244l0.354-0.354c0.565-0.566,1.555-0.567,2.122,0L22.542,3.6
	C23.126,4.184,23.126,5.136,22.542,5.721z"/>
</svg>
